_includes/icons/ios-wordpress.svg

<svg fill="#666" height="50" viewBox="0 0 50 50" width="50" xmlns="http://www.w3.org/2000/svg"><path d="m25 2c-12.688665 0-23 10.311335-23 23s10.311335 23 23 23 23-10.311335 23-23-10.311335-23-23-23zm0 2c11.607335 0 21 9.392665 21 21s-9.392665 21-21 21-21-9.392665-21-21 9.392665-21 21-21zm0 2c-10.486727 0-19 8.513273-19 19s8.513273 19 19 19 19-8.513273 19-19-8.513273-19-19-19zm0 2c3.972457 0 7.611711 1.3659473 10.501953 3.638672-.5057.619796-.802734 1.414546-.802734 2.261719 0 1.6.90039 2.999609 1.90039 4.599609.8 1.3 1.59961 3.000391 1.59961 5.400391 0 1.7-.5 3.80039-1.5 6.40039l-2 6.59961-7.09961-21.201172c1.2-.1 2.300782-.199219 2.300782-.199219 1-.1.90039-1.599609-.09961-1.599609h-.101562s-3.198828.298828-5.298828.298828c-1.9 0-5.201172-.298828-5.201172-.298828h-.09961c-1 0-1.099609 1.599609-.099609 1.599609 0 0 .999609.099219 2.099609.199219l3.09961 8.40039-4.298828 12.900391-7.201172-21.400391c1.2-.1 2.300781-.199218 2.300781-.199218 1-.1.900391-1.59961-.099609-1.59961h-.09961s-1.311383.107714-2.755859.195313c3.115247-3.666225 7.753234-5.996094 12.955078-5.996094zm12.087891 5.041016c1.36082 1.375477 2.475396 2.988021 3.304687 4.763672-.021171 1.131679-.209268 2.262852-.492187 3.394531-.4-1.4-.9-2.59961-1.5-3.59961l-.201172-.40039c-.8-1.3-1.398438-2.299219-1.398438-3.199219 0-.342555.099359-.680744.28711-.958984zm-13.488282 3.058593h1c.4.1.701172.09961 1.201172.09961l.09961.201172 7.099609 21.199218.697266 1.996094c-.381452.227354-.771751.439157-1.171875.636719l-5.326172-14.232422-.699219-1.900391-.199219-.699218zm-13.132812.09961h.433594l.099609.201172 7.199219 21.40039.601562 1.798828-.34375 1.097657c-.274899-.114356-.537363-.250774-.804687-.378907l-8.1347659-22.324218c.280334-.620231.5993429-1.217313.9492189-1.794922zm31.119141 5.095703c.26435 1.193502.414062 2.430598.414062 3.705078 0 5.25918-2.376798 9.947175-6.113281 13.0625l4.71289-13.662109c.437337-1.112815.752808-2.138966.986329-3.105469zm-33.2187505.177734 6.2128905 16.951172c-4.000725-3.1069-6.580078-7.951869-6.580078-13.423828 0-1.210307.1281354-2.389412.3671875-3.527344zm16.6328125 5.126953 5.341797 14.535157c-1.680372.55404-3.472883.865234-5.341797.865234-1.741372 0-3.41963-.264361-5-.748047z"/></svg>

<svg xmlns="http://www.w3.org/2000/svg" viewBox="0 0 50 50" width="50" height="50" fill="#666"><path style="line-height:normal;text-indent:0;text-align:start;text-decoration-line:none;text-decoration-style:solid;text-decoration-color:#000;text-transform:none;block-progression:tb;isolation:auto;mix-blend-mode:normal" d="M 25 2 C 12.311335 2 2 12.311335 2 25 C 2 37.688665 12.311335 48 25 48 C 37.688665 48 48 37.688665 48 25 C 48 12.311335 37.688665 2 25 2 z M 25 4 C 36.607335 4 46 13.392665 46 25 C 46 36.607335 36.607335 46 25 46 C 13.392665 46 4 36.607335 4 25 C 4 13.392665 13.392665 4 25 4 z M 25 6 C 14.513273 6 6 14.513273 6 25 C 6 35.486727 14.513273 44 25 44 C 35.486727 44 44 35.486727 44 25 C 44 14.513273 35.486727 6 25 6 z M 25 8 C 28.972457 8 32.611711 9.3659473 35.501953 11.638672 C 34.996253 12.258468 34.699219 13.053218 34.699219 13.900391 C 34.699219 15.500391 35.599609 16.9 36.599609 18.5 C 37.399609 19.8 38.199219 21.500391 38.199219 23.900391 C 38.199219 25.600391 37.699219 27.700781 36.699219 30.300781 L 34.699219 36.900391 L 27.599609 15.699219 C 28.799609 15.599219 29.900391 15.5 29.900391 15.5 C 30.900391 15.4 30.800781 13.900391 29.800781 13.900391 L 29.699219 13.900391 C 29.699219 13.900391 26.500391 14.199219 24.400391 14.199219 C 22.500391 14.199219 19.199219 13.900391 19.199219 13.900391 L 19.099609 13.900391 C 18.099609 13.900391 18 15.5 19 15.5 C 19 15.5 19.999609 15.599219 21.099609 15.699219 L 24.199219 24.099609 L 19.900391 37 L 12.699219 15.599609 C 13.899219 15.499609 15 15.400391 15 15.400391 C 16 15.300391 15.900391 13.800781 14.900391 13.800781 L 14.800781 13.800781 C 14.800781 13.800781 13.489398 13.908495 12.044922 13.996094 C 15.160169 10.329869 19.798156 8 25 8 z M 37.087891 13.041016 C 38.448711 14.416493 39.563287 16.029037 40.392578 17.804688 C 40.371407 18.936367 40.18331 20.06754 39.900391 21.199219 C 39.500391 19.799219 39.000391 18.599609 38.400391 17.599609 L 38.199219 17.199219 C 37.399219 15.899219 36.800781 14.9 36.800781 14 C 36.800781 13.657445 36.90014 13.319256 37.087891 13.041016 z M 23.599609 16.099609 L 24.599609 16.099609 C 24.999609 16.199609 25.300781 16.199219 25.800781 16.199219 L 25.900391 16.400391 L 33 37.599609 L 33.697266 39.595703 C 33.315814 39.823057 32.925515 40.03486 32.525391 40.232422 L 27.199219 26 L 26.5 24.099609 L 26.300781 23.400391 L 23.599609 16.099609 z M 10.466797 16.199219 L 10.900391 16.199219 L 11 16.400391 L 18.199219 37.800781 L 18.800781 39.599609 L 18.457031 40.697266 C 18.182132 40.58291 17.919668 40.446492 17.652344 40.318359 L 9.5175781 17.994141 C 9.7979121 17.37391 10.116921 16.776828 10.466797 16.199219 z M 41.585938 21.294922 C 41.850288 22.488424 42 23.72552 42 25 C 42 30.25918 39.623202 34.947175 35.886719 38.0625 L 40.599609 24.400391 C 41.036946 23.287576 41.352417 22.261425 41.585938 21.294922 z M 8.3671875 21.472656 L 14.580078 38.423828 C 10.579353 35.316928 8 30.471959 8 25 C 8 23.789693 8.1281354 22.610588 8.3671875 21.472656 z M 25 26.599609 L 30.341797 41.134766 C 28.661425 41.688806 26.868914 42 25 42 C 23.258628 42 21.58037 41.735639 20 41.251953 L 25 26.599609 z"/></svg>
